ui/StatusQ/src/assets/img/icons/gifs-light.svg

<svg fill="none" height="94" viewBox="0 0 132 94" width="132" xmlns="http://www.w3.org/2000/svg"><g fill="#4360df"><g clip-rule="evenodd" fill-rule="evenodd"><path d="m15 21c-3.3137 0-6 2.6863-6 6v52c0 3.3137 2.6863 6 6 6h90c3.314 0 6-2.6863 6-6v-52c0-3.3137-2.686-6-6-6zm40.4939 31.4786c-.1024-.0753-.212-.1421-.3275-.1993-.0769-.038-.1564-.0718-.2382-.1009-.2343-.0835-.4873-.1292-.751-.1292h-4.9685c-.9232 0-1.6562.7033-1.6562 1.589 0 .9378.733 1.6411 1.6562 1.6411h3.2852v2.0839c-.3702.329-.9413.6645-1.6224.9161-.6673.2465-1.4402.4125-2.233.4125-3.2852 0-5.6745-2.4226-5.6745-5.7048s2.3893-5.7048 5.6745-5.7048c1.3847 0 2.7422.5731 3.774 1.5369.0909.0872.1908.1641.2969.2301.3059.1904.6636.2909 1.0063.2909.1573 0 .3123-.0207.4615-.0594.1761-.0456.3442-.1163.4982-.2075.5044-.2986.8594-.8175.8594-1.4003 0-.3907-.1629-.8075-.4616-1.1201-1.4118-1.4587-3.5024-2.5528-6.4347-2.5528-5.2944 0-9.6385 3.4906-9.6385 8.987 0 5.4703 4.3441 9.013 9.6385 9.013 3.6653 0 7.7108-1.7713 7.7108-4.9233v-2.9436c0-.6722-.3363-1.2728-.8554-1.6545zm-.141 10.8487c.7626-.4343 1.5267-1.0036 2.1794-1.7123.6885 1.9244 2.5814 3.2287 4.6262 3.2287 1.5179 0 2.9723-.7012 3.9081-1.8561.9206 1.1457 2.3469 1.8561 3.8559 1.8561 2.5684 0 4.9549-2.0074 4.9549-4.8234v-2.5225h2.9636c2.4666 0 4.6562-1.9876 4.6562-4.615 0-1.0887-.3719-2.0732-.9856-2.8526 1.4511-.7627 2.4884-2.268 2.4884-4.0765 0-2.6226-2.1579-4.6411-4.6562-4.6411h-9.1498c-1.5637 0-3.0312.7087-4.0006 1.8618-.9132-1.2404-2.4016-2.0181-3.9806-2.0181-2.1565 0-4.1849 1.4153-4.7799 3.5362-.0612-.0725-.1248-.1433-.1906-.2121l-.0066-.007-.0068-.007c-1.9668-2.0322-4.831-3.4664-8.5904-3.4664-6.6209 0-12.6385 4.5216-12.6385 11.987 0 7.4227 5.9991 12.013 12.6385 12.013 2.2555 0 4.7145-.5339 6.7144-1.6727zm8.7605-17.3476v14.0406c0 .9898-.8689 1.8234-1.9549 1.8234-1.0317 0-1.9005-.8336-1.9005-1.8234v-14.0406c0-.9898.8688-1.8234 1.9548-1.8234 1.0317 0 1.9006.8336 1.9006 1.8234zm16.8866-.026c0-.9117-.7602-1.6411-1.6562-1.6411h-9.1498c-1.1946 0-2.172.9378-2.172 2.0839v13.6238c0 .9898.8688 1.8234 1.9005 1.8234 1.086 0 1.9549-.8336 1.9549-1.8234v-4.1514c0-.7572.6397-1.3711 1.4289-1.3711h4.5347c.896 0 1.6562-.7293 1.6562-1.615 0-.9117-.7602-1.6411-1.6562-1.6411h-4.5347c-.7892 0-1.4289-.6138-1.4289-1.371v-.9309c0-.7572.6397-1.3711 1.4289-1.3711h6.0375c.896 0 1.6562-.7293 1.6562-1.615z" opacity=".15"/><path d="m21 15c-3.3137 0-6 2.6863-6 6h90c3.314 0 6 2.6863 6 6v52c3.314 0 6-2.6863 6-6v-52c0-3.3137-2.686-6-6-6z" opacity=".1"/><path d="m27 9c-3.3137 0-6 2.6863-6 6h90c3.314 0 6 2.6863 6 6v52c3.314 0 6-2.6863 6-6v-52c0-3.3137-2.686-6-6-6z" opacity=".05"/></g><path d="m56.3493 57.0767v-2.9436c0-1.1461-.9774-2.0839-2.1721-2.0839h-4.9685c-.9232 0-1.6562.7033-1.6562 1.589 0 .9378.733 1.6411 1.6562 1.6411h3.2852v2.0839c-.7331.6513-2.2535 1.3286-3.8554 1.3286-3.2852 0-5.6745-2.4226-5.6745-5.7048s2.3893-5.7048 5.6745-5.7048c1.3847 0 2.7422.5731 3.774 1.5369.3529.3386.8416.521 1.3032.521.9503 0 1.8191-.7554 1.8191-1.6672 0-.3907-.1629-.8075-.4616-1.1201-1.4118-1.4587-3.5024-2.5528-6.4347-2.5528-5.2944 0-9.6385 3.4906-9.6385 8.987 0 5.4703 4.3441 9.013 9.6385 9.013 3.6653 0 7.7108-1.7713 7.7108-4.9233z"/><path d="m64.1134 60.0203v-14.0406c0-.9898-.8689-1.8234-1.9006-1.8234-1.086 0-1.9548.8336-1.9548 1.8234v14.0406c0 .9898.8688 1.8234 1.9005 1.8234 1.086 0 1.9549-.8336 1.9549-1.8234z"/><path d="m81 45.9537c0-.9117-.7602-1.6411-1.6562-1.6411h-9.1498c-1.1946 0-2.172.9378-2.172 2.0839v13.6238c0 .9898.8688 1.8234 1.9005 1.8234 1.086 0 1.9549-.8336 1.9549-1.8234v-4.1515c0-.7571.6397-1.371 1.4289-1.371h4.5347c.8959 0 1.6562-.7293 1.6562-1.615 0-.9117-.7603-1.6411-1.6562-1.6411h-4.5347c-.7892 0-1.4289-.6138-1.4289-1.371v-.9309c0-.7572.6397-1.3711 1.4289-1.3711h6.0375c.896 0 1.6562-.7293 1.6562-1.615z"/></g></svg>

<svg width="132" height="94" viewBox="0 0 132 94" fill="none" xmlns="http://www.w3.org/2000/svg">
<path opacity="0.15" fill-rule="evenodd" clip-rule="evenodd" d="M15 21C11.6863 21 9 23.6863 9 27V79C9 82.3137 11.6863 85 15 85H105C108.314 85 111 82.3137 111 79V27C111 23.6863 108.314 21 105 21H15ZM55.4939 52.4786C55.3915 52.4033 55.2819 52.3365 55.1664 52.2793C55.0895 52.2413 55.01 52.2075 54.9282 52.1784C54.6939 52.0949 54.4409 52.0492 54.1772 52.0492H49.2087C48.2855 52.0492 47.5525 52.7525 47.5525 53.6382C47.5525 54.576 48.2855 55.2793 49.2087 55.2793H52.4939V57.3632C52.1237 57.6922 51.5526 58.0277 50.8715 58.2793C50.2042 58.5258 49.4313 58.6918 48.6385 58.6918C45.3533 58.6918 42.964 56.2692 42.964 52.987C42.964 49.7048 45.3533 47.2822 48.6385 47.2822C50.0232 47.2822 51.3807 47.8553 52.4125 48.8191C52.5034 48.9063 52.6033 48.9832 52.7094 49.0492C53.0153 49.2396 53.373 49.3401 53.7157 49.3401C53.873 49.3401 54.028 49.3194 54.1772 49.2807C54.3533 49.2351 54.5214 49.1644 54.6754 49.0732C55.1798 48.7746 55.5348 48.2557 55.5348 47.6729C55.5348 47.2822 55.3719 46.8654 55.0732 46.5528C53.6614 45.0941 51.5708 44 48.6385 44C43.3441 44 39 47.4906 39 52.987C39 58.4573 43.3441 62 48.6385 62C52.3038 62 56.3493 60.2287 56.3493 57.0767V54.1331C56.3493 53.4609 56.013 52.8603 55.4939 52.4786ZM55.3529 63.3273C56.1155 62.893 56.8796 62.3237 57.5323 61.615C58.2208 63.5394 60.1137 64.8437 62.1585 64.8437C63.6764 64.8437 65.1308 64.1425 66.0666 62.9876C66.9872 64.1333 68.4135 64.8437 69.9225 64.8437C72.4909 64.8437 74.8774 62.8363 74.8774 60.0203V57.4978H77.841C80.3076 57.4978 82.4972 55.5102 82.4972 52.8828C82.4972 51.7941 82.1253 50.8096 81.5116 50.0302C82.9627 49.2675 84 47.7622 84 45.9537C84 43.3311 81.8421 41.3126 79.3438 41.3126H70.194C68.6303 41.3126 67.1628 42.0213 66.1934 43.1744C65.2802 41.934 63.7918 41.1563 62.2128 41.1563C60.0563 41.1563 58.0279 42.5716 57.4329 44.6925C57.3717 44.62 57.3081 44.5492 57.2423 44.4804L57.2357 44.4734L57.2289 44.4664C55.2621 42.4342 52.3979 41 48.6385 41C42.0176 41 36 45.5216 36 52.987C36 60.4097 41.9991 65 48.6385 65C50.894 65 53.353 64.4661 55.3529 63.3273ZM64.1134 45.9797V60.0203C64.1134 61.0101 63.2445 61.8437 62.1585 61.8437C61.1268 61.8437 60.258 61.0101 60.258 60.0203V45.9797C60.258 44.9899 61.1268 44.1563 62.2128 44.1563C63.2445 44.1563 64.1134 44.9899 64.1134 45.9797ZM81 45.9537C81 45.042 80.2398 44.3126 79.3438 44.3126H70.194C68.9994 44.3126 68.022 45.2504 68.022 46.3965V60.0203C68.022 61.0101 68.8908 61.8437 69.9225 61.8437C71.0085 61.8437 71.8774 61.0101 71.8774 60.0203V55.8689C71.8774 55.1117 72.5171 54.4978 73.3063 54.4978H77.841C78.737 54.4978 79.4972 53.7685 79.4972 52.8828C79.4972 51.9711 78.737 51.2417 77.841 51.2417H73.3063C72.5171 51.2417 71.8774 50.6279 71.8774 49.8707V48.9398C71.8774 48.1826 72.5171 47.5687 73.3063 47.5687H79.3438C80.2398 47.5687 81 46.8394 81 45.9537Z" fill="#4360DF"/>
<path opacity="0.1" fill-rule="evenodd" clip-rule="evenodd" d="M21 15C17.6863 15 15 17.6863 15 21H105C108.314 21 111 23.6863 111 27V79C114.314 79 117 76.3137 117 73V21C117 17.6863 114.314 15 111 15H21Z" fill="#4360DF"/>
<path opacity="0.05" fill-rule="evenodd" clip-rule="evenodd" d="M27 9C23.6863 9 21 11.6863 21 15H111C114.314 15 117 17.6863 117 21V73C120.314 73 123 70.3137 123 67V15C123 11.6863 120.314 9 117 9H27Z" fill="#4360DF"/>
<path d="M56.3493 57.0767V54.1331C56.3493 52.987 55.3719 52.0492 54.1772 52.0492H49.2087C48.2855 52.0492 47.5525 52.7525 47.5525 53.6382C47.5525 54.576 48.2855 55.2793 49.2087 55.2793H52.4939V57.3632C51.7608 58.0145 50.2404 58.6918 48.6385 58.6918C45.3533 58.6918 42.964 56.2692 42.964 52.987C42.964 49.7048 45.3533 47.2822 48.6385 47.2822C50.0232 47.2822 51.3807 47.8553 52.4125 48.8191C52.7654 49.1577 53.2541 49.3401 53.7157 49.3401C54.666 49.3401 55.5348 48.5847 55.5348 47.6729C55.5348 47.2822 55.3719 46.8654 55.0732 46.5528C53.6614 45.0941 51.5708 44 48.6385 44C43.3441 44 39 47.4906 39 52.987C39 58.4573 43.3441 62 48.6385 62C52.3038 62 56.3493 60.2287 56.3493 57.0767Z" fill="#4360DF"/>
<path d="M64.1134 60.0203V45.9797C64.1134 44.9899 63.2445 44.1563 62.2128 44.1563C61.1268 44.1563 60.258 44.9899 60.258 45.9797V60.0203C60.258 61.0101 61.1268 61.8437 62.1585 61.8437C63.2445 61.8437 64.1134 61.0101 64.1134 60.0203Z" fill="#4360DF"/>
<path d="M81 45.9537C81 45.042 80.2398 44.3126 79.3438 44.3126H70.194C68.9994 44.3126 68.022 45.2504 68.022 46.3965V60.0203C68.022 61.0101 68.8908 61.8437 69.9225 61.8437C71.0085 61.8437 71.8774 61.0101 71.8774 60.0203V55.8688C71.8774 55.1117 72.5171 54.4978 73.3063 54.4978H77.841C78.7369 54.4978 79.4972 53.7685 79.4972 52.8828C79.4972 51.9711 78.7369 51.2417 77.841 51.2417H73.3063C72.5171 51.2417 71.8774 50.6279 71.8774 49.8707V48.9398C71.8774 48.1826 72.5171 47.5687 73.3063 47.5687H79.3438C80.2398 47.5687 81 46.8394 81 45.9537Z" fill="#4360DF"/>
</svg>
